img/svg/maintenance-2.svg

<svg width="59" height="60" viewBox="0 0 59 60" fill="none" xmlns="http://www.w3.org/2000/svg">
<path d="M9.74316 31.0771V19.2748C9.74316 18.323 10.5046 17.6091 11.4564 17.6091H20.4033C21.3551 17.6091 22.1165 18.3706 22.1165 19.2748V31.0771H20.2129V19.5127H11.6468V31.0771H9.74316Z" fill="white"/>
<path d="M15.8827 22.9385H13.9795V25.5078H15.8827V22.9385Z" fill="white"/>
<path d="M34.7249 18.5598H32.8213V25.4604H34.7249V18.5598Z" fill="white"/>
<path d="M26.2099 32.028H3.27154C2.74805 32.028 2.31974 31.5997 2.31974 31.0762V12.8969H0.939631C0.558912 12.8969 0.225782 12.7065 0.0830127 12.3734C-0.0597571 12.0402 -0.0121671 11.6595 0.178192 11.374L8.79197 0.380719C8.98233 0.14277 9.26787 0 9.5534 0H37.108C37.3935 0 37.679 0.14277 37.8694 0.380719L46.4832 11.374C46.7211 11.6595 46.7687 12.0402 46.5784 12.3734C46.4356 12.7065 46.1025 12.8969 45.7217 12.8969H44.3416V26.6979H42.438V11.9451C42.438 11.4216 42.8663 10.9933 43.3898 10.9933H43.7705L36.5845 1.9036H9.98171L2.89082 10.9933H3.27154C3.79503 10.9933 4.22333 11.4216 4.22333 11.9451V30.0768H26.2099V32.028ZM27.0189 15.8474H19.5949C18.6431 15.8474 17.8816 15.086 17.8816 14.1818V9.75593C17.8816 8.80413 18.6431 8.09028 19.5949 8.09028H27.0189C27.9707 8.09028 28.7321 8.85172 28.7321 9.75593V14.1818C28.6845 15.1336 27.9231 15.8474 27.0189 15.8474ZM19.7852 13.9438H26.781V9.99388H19.7852V13.9438Z" fill="white"/>
<path d="M32.8239 26.4133H29.6354C29.1119 26.4133 28.6836 25.985 28.6836 25.4615V18.5609C28.6836 18.0374 29.1119 17.6091 29.6354 17.6091H37.916C38.4395 17.6091 38.8678 18.0374 38.8678 18.5609V24.8428H36.9642V19.5127H30.5872V24.5097H32.8239V26.4133Z" fill="white"/>
<path d="M43.2943 10.9934H27.7324V12.897H43.2943V10.9934Z" fill="white"/>
<path d="M18.8314 10.9934H3.26953V12.897H18.8314V10.9934Z" fill="white"/>
<path d="M36.8199 49.8749C33.4886 49.8749 30.1573 48.5899 27.5875 46.0677C25.1128 43.593 23.7803 40.3569 23.7803 36.8352C23.7803 33.3136 25.1604 30.0775 27.5875 27.6028C32.6796 22.5107 40.9602 22.5107 46.0524 27.6028C48.527 30.0775 49.8595 33.3136 49.8595 36.8352C49.8595 40.3569 48.4794 43.593 46.0524 46.0677C43.4825 48.6375 40.1512 49.8749 36.8199 49.8749ZM36.8199 25.7468C33.9645 25.7468 31.1091 26.8413 28.92 28.9829C26.826 31.1244 25.6839 33.8847 25.6839 36.8828C25.6839 39.881 26.826 42.6412 28.9676 44.7352C33.2983 49.0658 40.3892 49.0658 44.7198 44.7352C46.8138 42.6412 48.0035 39.8334 48.0035 36.8828C48.0035 33.9322 46.8614 31.1244 44.7198 29.0305C42.5307 26.8413 39.6753 25.7468 36.8199 25.7468Z" fill="white"/>
<path d="M31.3006 43.307C31.0626 43.307 30.8247 43.2118 30.6343 43.0215C28.9687 41.3558 28.0645 39.1667 28.0645 36.8348C28.0645 34.5029 28.9687 32.3137 30.6343 30.6481C31.015 30.2674 31.5861 30.2674 31.9668 30.6481C32.3475 31.0288 32.3475 31.5999 31.9668 31.9806C30.6819 33.3131 29.968 35.0264 29.968 36.8824C29.968 38.7384 30.6819 40.404 31.9668 41.6889C32.3475 42.0697 32.3475 42.6407 31.9668 43.0215C31.7765 43.2118 31.5385 43.307 31.3006 43.307Z" fill="white"/>
<path d="M54.1907 59.0122C54.1431 59.0122 54.1431 59.0122 54.1907 59.0122C53.5244 59.0122 52.9534 58.7266 52.4775 58.2983L41.627 46.9719L42.6263 46.3532C43.3878 45.8773 44.1016 45.3539 44.7203 44.7352C45.339 44.1165 45.91 43.4027 46.3384 42.6412L46.957 41.6418L58.2834 52.4923C58.7593 52.9207 58.9973 53.5393 58.9973 54.158C58.9973 54.7767 58.7593 55.3953 58.2834 55.8712L55.8087 58.3459C55.3804 58.7742 54.8094 59.0122 54.1907 59.0122ZM44.5775 47.3526L53.8576 56.9658C54.0003 57.1086 54.0955 57.1086 54.1907 57.1086C54.2859 57.1086 54.381 57.1086 54.5238 56.9658L56.9985 54.4911C57.0937 54.3959 57.1413 54.2532 57.1413 54.158C57.1413 54.0628 57.1413 53.9676 56.9985 53.8249L47.3377 44.5924C46.957 45.1159 46.5287 45.5918 46.0528 46.0677C45.5769 46.5436 45.101 46.9719 44.5775 47.3526Z" fill="white"/>
</svg>

<svg width="59" height="60" viewBox="0 0 59 60" fill="none" xmlns="http://www.w3.org/2000/svg"><path d="M9.743 31.077V19.275c0-.952.762-1.666 1.713-1.666h8.947c.952 0 1.713.762 1.713 1.666v11.802h-1.903V19.513h-8.566v11.564H9.743z" fill="#fff"/><path d="M15.883 22.939H13.98v2.569h1.903v-2.57zm18.842-4.379H32.82v6.9h1.904v-6.9z" fill="#fff"/><path d="M26.21 32.028H3.272a.955.955 0 01-.952-.952v-18.18H.94c-.381 0-.714-.19-.857-.523a1.062 1.062 0 01.095-.999L8.792.381A.993.993 0 019.553 0h27.555c.286 0 .571.143.761.38l8.614 10.994a.86.86 0 01.095 1c-.142.332-.476.523-.856.523h-1.38v13.8h-1.904V11.946c0-.523.428-.952.952-.952h.38l-7.186-9.09H9.982l-7.091 9.09h.38c.524 0 .952.429.952.952v18.132H26.21v1.951zm.809-16.18h-7.424c-.952 0-1.713-.762-1.713-1.666V9.756c0-.952.761-1.666 1.713-1.666h7.424c.952 0 1.713.762 1.713 1.666v4.426c-.047.952-.809 1.665-1.713 1.665zm-7.234-1.904h6.996v-3.95h-6.996v3.95z" fill="#fff"/><path d="M32.824 26.413h-3.189a.955.955 0 01-.951-.951V18.56c0-.524.428-.952.951-.952h8.281c.524 0 .952.428.952.952v6.282h-1.904v-5.33h-6.377v4.997h2.237v1.903zm10.47-15.42H27.732v1.904h15.562v-1.904zm-24.463 0H3.27v1.904h15.56v-1.904z" fill="#fff"/><path d="M36.82 49.875c-3.331 0-6.663-1.285-9.233-3.807-2.474-2.475-3.807-5.711-3.807-9.233 0-3.521 1.38-6.758 3.807-9.232 5.093-5.092 13.373-5.092 18.465 0 2.475 2.474 3.807 5.71 3.807 9.232 0 3.522-1.38 6.758-3.807 9.233-2.57 2.57-5.9 3.807-9.232 3.807zm0-24.128a11.29 11.29 0 00-7.9 3.236c-2.094 2.141-3.236 4.902-3.236 7.9s1.142 5.758 3.284 7.852c4.33 4.33 11.421 4.33 15.752 0 2.094-2.094 3.284-4.902 3.284-7.852s-1.143-5.759-3.284-7.853a11.136 11.136 0 00-7.9-3.283z" fill="#fff"/><path d="M31.3 43.307a.94.94 0 01-.666-.285 8.676 8.676 0 01-2.57-6.187 8.68 8.68 0 012.57-6.187.92.92 0 011.333 0 .92.92 0 010 1.333c-1.285 1.332-1.999 3.045-1.999 4.901 0 1.856.714 3.522 1.999 4.807a.92.92 0 010 1.333.94.94 0 01-.666.285zm22.89 15.705c-.047 0-.047 0 0 0-.666 0-1.237-.285-1.712-.714L41.627 46.972l1-.619c.76-.476 1.475-1 2.093-1.618a9.857 9.857 0 001.618-2.094l.619-1 11.326 10.851c.476.429.714 1.047.714 1.666s-.238 1.237-.714 1.713l-2.474 2.475a2.27 2.27 0 01-1.618.666zm-9.612-11.66l9.28 9.614c.142.143.238.143.333.143.095 0 .19 0 .333-.143l2.474-2.475a.514.514 0 00.143-.333c0-.095 0-.19-.142-.333l-9.661-9.233c-.381.524-.81 1-1.285 1.476-.476.476-.952.904-1.475 1.285z" fill="#fff"/></svg>
